X:101 
T:Lady on the Lake (reel), The 
S:Donnelly < Jones
F:file ID: cre.4/101lady_L
B:CRE4.125 (SpÃÂÃÂÃÂÃÂ©irbhean an Locha - no repeats)
Q:180
L:1/8
M:4/4
R:reel
K:Em
F|EFGB BAdB|A2FB AGFD|EFGB BABg|fedf edBA|
EFGB BAdB|A2FB AGFD|EFGB BABg|fedf e3:|
f|gebe gebe|fdad fdaf|gebe gebe|fedf e2 ef|
gebe gebe|fdad fdaf|gbag fgaf|gfe^d e3:|

%%%

